SVG_Azure_Grouped/AI/Cognitive Services QnA Maker.svg

<?xml version="1.0" encoding="UTF-8" standalone="no"?>
<!-- Generated by Microsoft Visio, SVG Export Cognitive Services QnA Maker.svg Page-1 -->

<svg
   xmlns:dc="http://purl.org/dc/elements/1.1/"
   xmlns:cc="http://creativecommons.org/ns#"
   xmlns:rdf="http://www.w3.org/1999/02/22-rdf-syntax-ns#"
   xmlns:svg="http://www.w3.org/2000/svg"
   xmlns="http://www.w3.org/2000/svg"
   xmlns:sodipodi="http://sodipodi.sourceforge.net/DTD/sodipodi-0.dtd"
   xmlns:inkscape="http://www.inkscape.org/namespaces/inkscape"
   width="0.78742707in"
   height="0.78833234in"
   viewBox="0 0 56.694713 56.759872"
   xml:space="preserve"
   class="st4"
   version="1.1"
   id="svg40"
   sodipodi:docname="Cognitive Services QnA Maker.svg"
   style="font-size:12px;overflow:visible;color-interpolation-filters:sRGB;fill:none;fill-rule:evenodd;stroke-linecap:square;stroke-miterlimit:3"
   inkscape:version="0.92.5 (2060ec1f9f, 2020-04-08)"><metadata
   id="metadata44"><rdf:RDF><cc:Work
       rdf:about=""><dc:format>image/svg+xml</dc:format><dc:type
         rdf:resource="http://purl.org/dc/dcmitype/StillImage" /></cc:Work></rdf:RDF></metadata><sodipodi:namedview
   pagecolor="#ffffff"
   bordercolor="#666666"
   borderopacity="1"
   objecttolerance="10"
   gridtolerance="10"
   guidetolerance="10"
   inkscape:pageopacity="0"
   inkscape:pageshadow="2"
   inkscape:window-width="640"
   inkscape:window-height="480"
   id="namedview42"
   showgrid="false"
   inkscape:zoom="1.4301283"
   inkscape:cx="37.795215"
   inkscape:cy="37.248258"
   inkscape:window-x="0"
   inkscape:window-y="0"
   inkscape:window-maximized="0"
   inkscape:current-layer="svg40" />
	<style
   type="text/css"
   id="style2">
	<![CDATA[
		.st1 {fill:url(#grad0-6);stroke:none;stroke-linecap:butt;stroke-width:33.0566}
		.st2 {fill:url(#grad0-10);stroke:none;stroke-linecap:butt;stroke-width:33.0566}
		.st3 {fill:#ffffff;stroke:none;stroke-linecap:butt;stroke-width:33.0566}
		.st4 {fill:none;fill-rule:evenodd;font-size:12px;overflow:visible;stroke-linecap:square;stroke-miterlimit:3}
	]]>
	</style>

	<defs
   id="Patterns_And_Gradients">
		<linearGradient
   id="grad0-6"
   x1="-7.569226e-07"
   y1="91.682179"
   x2="35.583899"
   y2="91.682179"
   gradientTransform="scale(1.027712,0.97303524)"
   gradientUnits="userSpaceOnUse">
			<stop
   offset="0"
   stop-color="#32bedd"
   stop-opacity="1"
   id="stop4" />
			<stop
   offset="1"
   stop-color="#50e6ff"
   stop-opacity="1"
   id="stop6" />
		</linearGradient>
		<linearGradient
   id="grad0-10"
   x1="-7.5708612e-07"
   y1="91.662386"
   x2="35.581854"
   y2="91.662386"
   gradientTransform="scale(1.02749,0.97324544)"
   gradientUnits="userSpaceOnUse">
			<stop
   offset="0"
   stop-color="#5ea0ef"
   stop-opacity="1"
   id="stop9" />
			<stop
   offset="1"
   stop-color="#0078d4"
   stop-opacity="1"
   id="stop11" />
		</linearGradient>
	</defs>
	<g
   id="g38"
   transform="translate(-33.056599,-33.0588)">
		<title
   id="title15">Page-1</title>
		<g
   id="group18440-1"
   transform="translate(33.0566,-34.0157)">
			<title
   id="title17">Cognitive Services QnA Maker.18440</title>
			<g
   id="group18441-2">
				<title
   id="title19">g8</title>
				<g
   id="shape18442-3"
   transform="translate(20.1247)">
					<title
   id="title21">path2</title>
					<path
   d="m 2.13,89.21 h 32.32 a 2.12059,2.07822 0 0 1 2.12,2.07 v 25.17 a 2.12381,2.08137 0 0 1 -2.12,2.08 H 21.22 a 0.350751,0.343742 -180 0 0 -0.215599,0.0725 L 14.22,123.69 a 0.704719,0.690638 0 0 1 -1.13592,-0.54873 L 13.09,118.87 a 0.353969,0.346896 -180 0 0 -0.350751,-0.3469 L 2.12,118.53 A 2.12059,2.07822 0 0 1 0,116.45 V 91.28 a 2.12381,2.08137 0 0 1 2.13,-2.07 z"
   class="st1"
   id="path23"
   inkscape:connector-curvature="0"
   style="fill:url(#grad0-6);stroke:none;stroke-width:33.05659866;stroke-linecap:butt" />
				</g>
				<g
   id="shape18443-7"
   transform="translate(0,-22.1355)">
					<title
   id="title26">path4</title>
					<path
   d="m 36.56,91.29 v 25.16 a 2.12059,2.07822 0 0 1 -2.12,2.08 h -10.6 a 0.353969,0.346896 -180 0 0 -0.350751,0.3469 L 23.49,123.15 a 0.707937,0.693792 0 0 1 -1.13592,0.54873 L 15.56,118.6 a 0.350751,0.343742 -180 0 0 -0.215599,-0.0631 L 2.12,118.54 A 2.12381,2.08137 0 0 1 0,116.46 V 91.29 a 2.12059,2.07822 0 0 1 2.12,-2.08 h 32.32 a 2.12381,2.08137 0 0 1 2.12,2.08 z"
   class="st2"
   id="path28"
   inkscape:connector-curvature="0"
   style="fill:url(#grad0-10);stroke:none;stroke-width:33.05659866;stroke-linecap:butt" />
				</g>
				<g
   id="shape18444-11"
   transform="translate(13.1805,-31.8426)">
					<title
   id="title31">path6</title>
					<path
   d="m 2.83,118 a 5.53478,5.42419 0 0 1 -0.21,-0.89 6.16549,6.04229 0 0 1 -0.1,-1.07 3.44959,3.38066 0 0 1 0.34,-1.51 6.43579,6.3072 0 0 1 0.85,-1.26 14.207,13.9231 0 0 1 1.09,-1.14 c 0.4,-0.36 0.77,-0.71 1.1,-1.06 a 6.04643,5.92561 -180 0 0 0.85,-1.09 2.5164,2.46611 -180 0 0 0.35,-1.26 2.27505,2.22959 -180 0 0 -0.26,-1.07 2.25253,2.20752 -180 0 0 -0.68,-0.75 3.14389,3.08107 -180 0 0 -1,-0.46 A 4.55011,4.45919 -180 0 0 3.95,106.29 5.60558,5.49357 -180 0 0 0,108.1 v -3.15 a 9.22893,9.04452 0 0 1 4.72,-1.3 7.50092,7.35104 0 0 1 2.12,0.28 5.31597,5.20974 0 0 1 1.76,0.85 4.07386,3.99246 0 0 1 1.18,1.39 4.30233,4.21636 0 0 1 0.43,1.93 4.75927,4.66417 0 0 1 -0.36,1.87 7.05363,6.91269 0 0 1 -0.91,1.51 8.5757,8.40434 0 0 1 -1.18,1.22 23.1592,22.6964 -180 0 0 -1.18,1.06 6.16227,6.03914 -180 0 0 -0.91,1.1 2.40699,2.35889 -180 0 0 -0.36,1.26 3.55899,3.48788 -180 0 0 0.15,1.07 6.78655,6.65094 -180 0 0 0.31,0.8 z m 1.58,5.77 a 2.0498,2.00884 0 0 1 -1.4,-0.54 1.69261,1.65879 0 0 1 -0.59,-1.28 1.66365,1.63041 0 0 1 0.59,-1.28 2.03371,1.99307 0 0 1 2.79,0 1.66043,1.62726 0 0 1 0.58,1.29 1.6894,1.65564 0 0 1 -0.58,1.28 2.03371,1.99307 0 0 1 -1.39,0.53 z"
   class="st3"
   id="path33"
   inkscape:connector-curvature="0"
   style="fill:#ffffff;stroke:none;stroke-width:33.05659866;stroke-linecap:butt" />
				</g>
			</g>
		</g>
	</g>
</svg>

<?xml version="1.0" encoding="UTF-8" standalone="no"?>
<!DOCTYPE svg PUBLIC "-//W3C//DTD SVG 1.1//EN" "http://www.w3.org/Graphics/SVG/1.1/DTD/svg11.dtd">
<!-- Generated by Microsoft Visio, SVG Export Cognitive Services QnA Maker.svg Page-1 -->
<svg xmlns="http://www.w3.org/2000/svg" xmlns:xlink="http://www.w3.org/1999/xlink" xmlns:ev="http://www.w3.org/2001/xml-events"
		width="1.70564in" height="1.71896in" viewBox="0 0 122.806 123.765" xml:space="preserve" color-interpolation-filters="sRGB"
		class="st4">
	<style type="text/css">
	<![CDATA[
		.st1 {fill:url(#grad0-6);stroke:none;stroke-linecap:butt;stroke-width:33.0566}
		.st2 {fill:url(#grad0-10);stroke:none;stroke-linecap:butt;stroke-width:33.0566}
		.st3 {fill:#ffffff;stroke:none;stroke-linecap:butt;stroke-width:33.0566}
		.st4 {fill:none;fill-rule:evenodd;font-size:12px;overflow:visible;stroke-linecap:square;stroke-miterlimit:3}
	]]>
	</style>

	<defs id="Patterns_And_Gradients">
		<linearGradient id="grad0-6" x1="0" y1="0" x2="1" y2="0" gradientTransform="rotate(-90 0.5 0.5)">
			<stop offset="0" stop-color="#32bedd" stop-opacity="1"/>
			<stop offset="1" stop-color="#50e6ff" stop-opacity="1"/>
		</linearGradient>
		<linearGradient id="grad0-10" x1="0" y1="0" x2="1" y2="0" gradientTransform="rotate(90 0.5 0.5)">
			<stop offset="0" stop-color="#5ea0ef" stop-opacity="1"/>
			<stop offset="1" stop-color="#0078d4" stop-opacity="1"/>
		</linearGradient>
	</defs>
	<g>
		<title>Page-1</title>
		<g id="group18010-1" transform="translate(33.0566,-34.0157)">
			<title>Cognitive Services QnA Maker.18010</title>
			<g id="group18011-2">
				<title>g8</title>
				<g id="shape18012-3" transform="translate(20.1247,2.84217E-13)">
					<title>path2</title>
					<path d="M2.13 89.21 L34.45 89.21 A2.12059 2.07822 0 0 1 36.57 91.28 L36.57 116.45 A2.12381 2.08137 0 0 1 34.45
								 118.53 L21.22 118.53 a0.350751 0.343742 -180 0 0 -0.215599 0.0725328 L14.22 123.69 a0.704719 0.690638
								 0 0 1 -1.13592 -0.548726 L13.09 118.87 a0.353969 0.346896 -180 0 0 -0.350751 -0.346896 L2.12 118.53
								 A2.12059 2.07822 0 0 1 0 116.45 L0 91.28 A2.12381 2.08137 0 0 1 2.13 89.21 Z" class="st1"/>
				</g>
				<g id="shape18013-7" transform="translate(-2.79776E-13,-22.1355)">
					<title>path4</title>
					<path d="M36.56 91.29 L36.56 116.45 A2.12059 2.07822 0 0 1 34.44 118.53 L23.84 118.53 a0.353969 0.346896 -180
								 0 0 -0.350751 0.346896 L23.49 123.15 a0.707937 0.693792 0 0 1 -1.13592 0.548726 L15.56 118.6 a0.350751
								 0.343742 -180 0 0 -0.215599 -0.063072 L2.12 118.54 A2.12381 2.08137 0 0 1 -0 116.46 L0 91.29 A2.12059
								 2.07822 0 0 1 2.12 89.21 L34.44 89.21 A2.12381 2.08137 0 0 1 36.56 91.29 Z" class="st2"/>
				</g>
				<g id="shape18014-11" transform="translate(13.1805,-31.8426)">
					<title>path6</title>
					<path d="M2.83 118 A5.53478 5.42419 0 0 1 2.62 117.11 A6.16549 6.04229 0 0 1 2.52 116.04 A3.44959 3.38066 0 0
								 1 2.86 114.53 A6.43579 6.3072 0 0 1 3.71 113.27 A14.207 13.9231 0 0 1 4.8 112.13 C5.2 111.77 5.57
								 111.42 5.9 111.07 A6.04643 5.92561 -180 0 0 6.75 109.98 A2.5164 2.46611 -180 0 0 7.1 108.72 A2.27505
								 2.22959 -180 0 0 6.84 107.65 A2.25253 2.20752 -180 0 0 6.16 106.9 A3.14389 3.08107 -180 0 0 5.16
								 106.44 A4.55011 4.45919 -180 0 0 3.95 106.29 A5.60558 5.49357 -180 0 0 0 108.1 L0 104.95 A9.22893
								 9.04452 0 0 1 4.72 103.65 A7.50092 7.35104 0 0 1 6.84 103.93 A5.31597 5.20974 0 0 1 8.6 104.78 A4.07386
								 3.99246 0 0 1 9.78 106.17 A4.30233 4.21636 0 0 1 10.21 108.1 A4.75927 4.66417 0 0 1 9.85 109.97
								 A7.05363 6.91269 0 0 1 8.94 111.48 A8.5757 8.40434 0 0 1 7.76 112.7 A23.1592 22.6964 -180 0 0 6.58
								 113.76 A6.16227 6.03914 -180 0 0 5.67 114.86 A2.40699 2.35889 -180 0 0 5.31 116.12 A3.55899 3.48788
								 -180 0 0 5.46 117.19 A6.78655 6.65094 -180 0 0 5.77 117.99 L2.83 118 ZM4.41 123.77 A2.0498 2.00884
								 0 0 1 3.01 123.23 A1.69261 1.65879 0 0 1 2.42 121.95 A1.66365 1.63041 0 0 1 3.01 120.67 A2.03371
								 1.99307 0 0 1 5.8 120.67 A1.66043 1.62726 0 0 1 6.38 121.96 A1.6894 1.65564 0 0 1 5.8 123.24 A2.03371
								 1.99307 0 0 1 4.41 123.77 Z" class="st3"/>
				</g>
			</g>
		</g>
	</g>
</svg>
